dist/img/icons/logincurve.svg

<svg width="24" height="24" viewBox="0 0 24 24" fill="none" xmlns="http://www.w3.org/2000/svg">
<path d="M8.9 7.56023C9.21 3.96023 11.06 2.49023 15.11 2.49023H15.24C19.71 2.49023 21.5 4.28023 21.5 8.75023V15.2702C21.5 19.7402 19.71 21.5302 15.24 21.5302H15.11C11.09 21.5302 9.24 20.0802 8.91 16.5402M2 12.0002H14.88" stroke="#6F7682" stroke-width="1.5" stroke-linecap="round" stroke-linejoin="round"/>
<path d="M12.65 8.6499L16 11.9999L12.65 15.3499" stroke="#6F7682" stroke-width="1.5" stroke-linecap="round" stroke-linejoin="round"/>
</svg>

<svg width="24" height="24" viewBox="0 0 24 24" fill="none" xmlns="http://www.w3.org/2000/svg"><path d="M8.9 7.56c.31-3.6 2.16-5.07 6.21-5.07h.13c4.47 0 6.26 1.79 6.26 6.26v6.52c0 4.47-1.79 6.26-6.26 6.26h-.13c-4.02 0-5.87-1.45-6.2-4.99M2 12h12.88" stroke="#6F7682" stroke-width="1.5" stroke-linecap="round" stroke-linejoin="round"/><path d="M12.65 8.65L16 12l-3.35 3.35" stroke="#6F7682" stroke-width="1.5" stroke-linecap="round" stroke-linejoin="round"/></svg>
